practice/figma_pug_scss_tTeta-healing/out/img/Group 2.svg

<svg width="174" height="174" viewBox="0 0 174 174" fill="none" xmlns="http://www.w3.org/2000/svg">
<circle cx="87" cy="87" r="58" fill="#A2ADFF" fill-opacity="0.2"/>
<circle cx="87" cy="87" r="86.5" stroke="#A2ADFF" stroke-opacity="0.3"/>
<g filter="url(#filter0_d)">
<ellipse cx="87" cy="87" rx="40" ry="42" fill="#5A64B0"/>
<ellipse cx="87" cy="87" rx="40" ry="42" fill="url(#paint0_linear)"/>
</g>
<circle cx="87" cy="85" r="40" fill="url(#paint1_linear)"/>
<path d="M93.1158 83.5143L84.2403 77.43C83.8305 77.1488 83.4175 77 83.0742 77C82.4105 77 82 77.5333 82 78.4261V91.576C82 92.4677 82.41 93 83.0721 93C83.4159 93 83.8223 92.8511 84.2331 92.5691L93.1127 86.485C93.6838 86.093 94 85.5657 94 84.9993C94.0001 84.4333 93.6875 83.906 93.1158 83.5143Z" fill="white"/>
<defs>
<filter id="filter0_d" x="27" y="30" width="120" height="124" filterUnits="userSpaceOnUse" color-interpolation-filters="sRGB">
<feFlood flood-opacity="0" result="BackgroundImageFix"/>
<feColorMatrix in="SourceAlpha" type="matrix" values="0 0 0 0 0 0 0 0 0 0 0 0 0 0 0 0 0 0 127 0"/>
<feOffset dy="5"/>
<feGaussianBlur stdDeviation="10"/>
<feColorMatrix type="matrix" values="0 0 0 0 0.23592 0 0 0 0 0.266351 0 0 0 0 0.529167 0 0 0 0.51 0"/>
<feBlend mode="normal" in2="BackgroundImageFix" result="effect1_dropShadow"/>
<feBlend mode="normal" in="SourceGraphic" in2="effect1_dropShadow" result="shape"/>
</filter>
<linearGradient id="paint0_linear" x1="87" y1="101.175" x2="87" y2="129" gradientUnits="userSpaceOnUse">
<stop stop-color="#8793F3"/>
<stop offset="1" stop-color="#5562CB"/>
</linearGradient>
<linearGradient id="paint1_linear" x1="87" y1="45" x2="87" y2="125" gradientUnits="userSpaceOnUse">
<stop stop-color="#ABB5FF"/>
<stop offset="1" stop-color="#7986EC"/>
</linearGradient>
</defs>
</svg>

<svg width="174" height="174" fill="none" xmlns="http://www.w3.org/2000/svg"><circle cx="87" cy="87" r="58" fill="#A2ADFF" fill-opacity=".2"/><circle cx="87" cy="87" r="86.5" stroke="#A2ADFF" stroke-opacity=".3"/><g filter="url(#filter0_d)"><ellipse cx="87" cy="87" rx="40" ry="42" fill="#5A64B0"/><ellipse cx="87" cy="87" rx="40" ry="42" fill="url(#paint0_linear)"/></g><circle cx="87" cy="85" r="40" fill="url(#paint1_linear)"/><path d="M93.116 83.514L84.24 77.43c-.41-.281-.822-.43-1.166-.43-.663 0-1.074.533-1.074 1.426v13.15c0 .892.41 1.424 1.072 1.424.344 0 .75-.149 1.161-.43l8.88-6.085c.57-.392.887-.92.887-1.486s-.313-1.093-.884-1.485z" fill="#fff"/><defs><linearGradient id="paint0_linear" x1="87" y1="101.175" x2="87" y2="129" gradientUnits="userSpaceOnUse"><stop stop-color="#8793F3"/><stop offset="1" stop-color="#5562CB"/></linearGradient><linearGradient id="paint1_linear" x1="87" y1="45" x2="87" y2="125" gradientUnits="userSpaceOnUse"><stop stop-color="#ABB5FF"/><stop offset="1" stop-color="#7986EC"/></linearGradient><filter id="filter0_d" x="27" y="30" width="120" height="124" filterUnits="userSpaceOnUse" color-interpolation-filters="sRGB"><feFlood flood-opacity="0" result="BackgroundImageFix"/><feColorMatrix in="SourceAlpha" values="0 0 0 0 0 0 0 0 0 0 0 0 0 0 0 0 0 0 127 0"/><feOffset dy="5"/><feGaussianBlur stdDeviation="10"/><feColorMatrix values="0 0 0 0 0.23592 0 0 0 0 0.266351 0 0 0 0 0.529167 0 0 0 0.51 0"/><feBlend in2="BackgroundImageFix" result="effect1_dropShadow"/><feBlend in="SourceGraphic" in2="effect1_dropShadow" result="shape"/></filter></defs></svg>
